X:1
L:1/8
M:3/4
K:G
|: D2 BD d2 | D2 BD d2 | cB Ac eg |{a} gf ge d2 | D2 BD d2 | D2 BD d2 | cB AD F2 |1 G3 G{A} GE :|2 
 G3 G{A} GA |: B2 ba g2 | f3{g} f ef | g4{g} a2 | c4 cB | A2 AG AB | c2 cA ce | g2{a} ge ce | 
 d2 dc BA | B2 ba g2 | f3{g} f ef | g4{g} a2 | c4 cB | A2 AG AB | c3 D F2 | G2 AG AB |1 
 G3 G{A} GA :|2 G4 z2 ||""^Last Time B Part"" B2 ba g2 | f3{g} f ef | g4{g} a2 | c4 cB | A2 AG AB | 
 c2 cA ce | g2{a} ge ce | ag fe dc | AB ba g2 | f3{g} f ef | g4{g} a2 | c4 cB | A2 AG AB | 
 c3 D F2 | G2 AG AB | G4 z2 ||
